X: 1083
T: Hâbîde Olan Tâlî-i Nâ-sâzım
C: Udî Sami Bey
O: Turkey
F: http://compmusic.upf.edu/node/140
N: sultaniyegah--sarki--aksak--habide_olan--udi_sami_bey
N: makam= sultaniyegah
N: form= sarki
N: usul= aksak = 9/8
M: 9/8
L: 1/16
K: C _B ^c  
Q: 1/4=126
%%MIDI tuningsystem comma53
d3/2c/de c2B2 A2G2 A2B2 c2 | d2 efag feed dcd4z2  | 
w:  ARANAĞME  |   | 
ef2f f2f2 fefg a6 | e4c4BA BcA4z2  | \
w:   |   | 
A=c2c c2c2 c=Bc_e dc_BA G2 | 
w:   | 
GB2BB2 B2BA Bd=cB AGF2  | FA2A A2A2 AGAB AGFE D2 | 
w:   |   | 
EF EFAG FEED DCD6  | d3/2c/de c2B2 A2G2 A2B2 c2 | 
w:   |  ARANAĞME  | 
d2 efag feed dcd4z2  | ef2f f2f2 fefg a6 | 
w:   |   | 
e4c4BA BcA4z2  | A=c2c c2c2 c=Bc_e dc_BA G2 | 
w:   |   | 
GB2BB2 B2BA Bd=cB AGF2  | FA2A A2A2 AGAB AGFE D2 | 
w:   |   | 
EF EFAG FEED DCD6  | A4 d3e fedc d4 ef | 
w:   |  Hâ bî *  de  *  o *  lan   | 
ed cBA2 efed dcd6  | e2ef g2fe efed cdef df | 
w:  tâ *  *  *  li  i  *  nâ  |  sâ *  *  zım_ u *  yan  | 
e6 efed cde4z2  | e3f g2a2 bagb a4 z2 | \
w:  dı   SAZ  |  Et *  tik *  le *  *  ri ne   | 
ag bagf affe dcd6  | 
w:  şûh_ *  *  *  i  *  si *  tem  | 
e2ef g2fe efed cdef ed | c2 d4 A2BA Bcd6  | 
w:  kâ *  *  rım_ u *  tan  |  dı   *  SAZ  | 
d3=c BAG2 FEFG A4 z2 | A3Bc2 d2c2 edd6  | \
w:  Et *  tik *  *  le *  *  ri ne   |  şûh_ *  i  si tem  | 
d3=c =BAG2 F2EF AGFE DC | 
w:  kâ *  rım_ *  u tan  | 
D6 abag fga6  | g3a a4 a2{c'}ba a4 z2 | \
w:  dı   SAZ  |  At *  tı  ko *  lu *  nu   | 
f3_7/8gg2 gff_1/4e def6  | 
w:  boy *  nu ma  *  mes  | 
a3g =c'2ba abag agfg ab | g2 a4 abag fga6  | 
w:  tâ *  ne  u *  zan  |  dı   *  SAZ  | 
=c'3b b3a a2{b}ag g2g_7/8a gf | g2 {_7/8a}ga=c'_1/4b aggf fef2 e2d2  | 
w:  At *  tı  *  ko *  lu *  nu   |  boy *  *  *  nu *  ma  *  mes  | 
d2de f2fe efed cdef df | e6 efed cde6  | 
w:  tâ *  *  ne  u *  zan  |  dı   SAZ  | 
e3f g2a2 bagb a4 z2 | ag bagf affe dcd6  | 
w:  Et *  tik *  le *  *  ri ne   |  şûh_ *  *  *  i  *  si *  tem  | 
e2ef g2fe efed cdef ed | c2 d4 A2BA Bcd6  | 
w:  kâ *  *  rım_ u *  tan  |  dı   *  SAZ  | 
d3=c BAG2 FEFG A4 z2 | A3Bc2 d2c2 edd6  | \
w:  Et *  tik *  *  le *  *  ri ne   |  şûh_ *  i  si tem  | 
d3=c =BAG2 F2EF AGFE DC | 
w:  kâ *  rım_ *  u tan  | 
D6 |
w:  dı    | 


